dist/svgs/team-notebook.svg

<svg xmlns="http://www.w3.org/2000/svg" viewBox="0 0 512 512"><path d="M448-1q10 0 16.5 6t6.5 16v469q0 10-6.5 15.5T448 511H64q-8 0-14.5-5.5T43 490V21q0-10 6.5-16T64-1h384zM215 213q0 17 12 29.5t29 12.5q19 0 31-12.5t12-29.5v-22q0-17-12-29.5T256 149q-17 0-29 12.5T215 191v22zm148 128q0-28-18.5-46T299 277h-84q-27 0-45.5 18T151 341h212z"/></svg>

<?xml version="1.0" encoding="UTF-8" standalone="no"?><svg   xmlns:svg="http://www.w3.org/2000/svg"   xmlns="http://www.w3.org/2000/svg"   version="1.1"   width="512"   height="512"   viewBox="0 0 512 512">  <path     d="M448 -1Q458 -1 464.5 5T471 21V490Q471 500 464.5 505.5T448 511H64Q56 511 49.5 505.5T43 490V21Q43 11 49.5 5T64 -1H448zM215 213Q215 230 227 242.5T256 255Q275 255 287 242.5T299 213V191Q299 174 287 161.5T256 149Q239 149 227 161.5T215 191V213zM363 341Q363 313 344.5 295T299 277H215Q188 277 169.5 295T151 341H363z"     id="team-notebook" /></svg>
